X: 32792
T: Poor But Happy At 53
R: reel
M: 4/4
K: Eminor
|:EFGA BE {A/}E2|c2 Bc BE ~E2|DEFG AD {A/}D2|!slide!ADBD AD {A/}GD|
EFGA B2 ed|{a/}edBG {c/}A2 GA|BAGB AF ~F2|{A/}GE{A/}FD E2 E2:|
|:{a/}edBA B2 ef|{a/}gfed BA (3Bcd|{a/}edefg2ze|~f3d ~e3 f|
(3gfe (3fed edBA|{c/}AG{A/}GF GE {A/}E2|BAGB AF ~F2|{A/}GEFD E4:|

